packages/calcite-ui-icons/icons/arrow-curve-tool-16.svg

<?xml version="1.0" encoding="UTF-8"?><svg id="icons" xmlns="http://www.w3.org/2000/svg" viewBox="0 0 16 16"><defs><style>.cls-1{fill:none;}</style></defs><path d="M11.35693.69629l-.70703.70703,1.62561,1.62604c-2.30145.12061-4.40839.80823-6.10822,1.97064h-2.1673v2.02148c-1.07404,1.3714-1.77002,3.05042-1.94897,4.97852h-1.05103v3h3v-3h-.94476c.15796-1.52496.67914-2.86755,1.47205-4h2.47272v-2.34253c1.48987-.94867,3.2981-1.51569,5.26794-1.62866l-1.61804,1.61768.70703.70703,2.82861-2.82812-2.82861-2.8291ZM3,14h-1v-1h1v1ZM6,7h-1v-1h1v1Z"/><rect class="cls-1" width="16" height="16"/></svg>

<svg xmlns="http://www.w3.org/2000/svg" viewBox="0 0 16 16"><path d="M11.357.696l-.707.707 1.626 1.626C9.974 3.15 7.867 3.838 6.167 5H4v2.021C2.926 8.393 2.23 10.071 2.051 12H1v3h3v-3h-.945a8.41 8.41 0 0 1 1.472-4H7V5.657c1.49-.948 3.298-1.515 5.268-1.628L10.65 5.646l.707.708 2.829-2.829-2.83-2.829zM3 14H2v-1h1v1zm3-7H5V6h1v1z"/><path fill="none" d="M0 0h16v16H0z"/></svg>
